src/images/svg/trade-types/forex.svg

<svg xmlns="http://www.w3.org/2000/svg" width="64" height="64"><g fill="#FF6444"><circle cx="32" cy="32" r="32" fill-opacity=".08"/><path fill-opacity=".48" d="M18 23v18h4v-6h6v-4h-6v-4h8v-4z"/><path d="m37 29-4-6h-5l6 9-6 9h5l4-6 4 6h5l-6-9 6-9h-5z"/></g></svg>

<svg xmlns="http://www.w3.org/2000/svg" width="64" height="64" viewBox="0 0 64 64">
    <g fill="#FF6444">
        <circle cx="32" cy="32" r="32" fill-opacity=".08"/>
        <path fill-opacity=".48" d="M18 23L18 41 22 41 22 35 28 35 28 31 22 31 22 27 30 27 30 23z"/>
        <path d="M37 29L33 23 28 23 34 32 28 41 33 41 37 35 41 41 46 41 40 32 46 23 41 23z"/>
    </g>
</svg>
